X:1
T:Title
%%score { 1 | 2 }
L:1/8
M:3/4
K:Eb
V:1 treble nm="Grand Piano"
V:2 bass 
V:1
 z2 z2[Q:1/4=110] EF | G2 G2 G2 | [GB]4 [EG][GB] | [FA]2 [EG]2 [DF]2 | [EG]4 [EG][GB] | %5
 [Ac]2 [GB]2 [EG]2 | [Ac]2 [GB]2 [EG]2 | [DF]4 EF | G2 G2 G2 |[M:2/4] [GB]4 |[M:1/4] [EG][GB] | %11
[M:3/4] [FA]2 [EG]2 [DF]2 | G4 EF | G2 G2 [Ec]2 | [EB]2 [DA]2 [DF]2 |[M:2/4] E4 |[M:1/4] G[GB] | %17
[M:3/4] [Ge]2 [Ae]2 [Ge]2 | d4 BB | c2 [ce]2 [Ac]2 |[M:2/4] [GB]4 |[M:1/4] [EG][GB] | %22
[M:3/4] [Ac]2 [GB]2 [EG]2 | [Ac]2 [GB]2 [EG]2 |[M:2/4] [DF]4 |[M:1/4] [EG][GB] | %26
[M:3/4] [Ge]2 [Ae]2 [Ge]2 | d4 BB | c2 [ce]2 [Ac]2 |[M:2/4] [GB]4 |[M:1/4] EF | %31
[M:3/4] G2 G2 [Ec]2 | [EB]2 [EA]2 [DF]2 |[M:2/4] E4 |] %34
V:2
 z2 z2 [E,G,][E,A,E] | [E,B,E]2 [E,B,E]2 [E,B,E]2 | [E,B,]4 [E,B,][E,B,] | %3
 [B,,B,]2 [B,,B,]2 [B,,B,]2 | [E,B,]4 [E,B,][E,E] | [E,E]2 [E,E]2 [E,B,]2 | [E,E]2 [E,E]2 [E,B,]2 | %7
 [B,,B,]4 [E,G,][E,A,E] | [E,B,E]2 [E,B,E]2 [E,B,E]2 |[M:2/4] [E,B,]4 |[M:1/4] [E,B,][E,B,] | %11
[M:3/4] [B,,B,]2 [B,,B,]2 [B,,B,]2 | [E,B,E]4 [E,G,][E,A,E] | [E,B,E]2 [E,B,E]2 [A,,A,]2 | %14
 [B,,G,]2 [B,,F,]2 [B,,A,]2 |[M:2/4] [E,G,]4 |[M:1/4] [E,B,E][E,B,] | %17
[M:3/4] [E,B,]2 [E,C]2 [E,B,]2 | [B,F]4 [G,E][G,E] | [A,EA]2 [A,E]2[K:bass] [A,E]2 | %20
[M:2/4] [E,E]4 |[M:1/4] [E,B,][E,E] |[M:3/4] [E,E]2 [E,E]2 [E,B,]2 | [E,E]2 [E,E]2 [E,B,]2 | %24
[M:2/4] [B,,B,]4 |[M:1/4] [E,B,][E,B,] |[M:3/4] [E,B,]2 [E,C]2 [E,B,]2 | [B,F]4 [G,E][G,E] | %28
 [A,EA]2 [A,E]2[K:bass] [A,E]2 |[M:2/4] [E,E]4 |[M:1/4] [E,G,][E,A,E] | %31
[M:3/4] [E,B,E]2 [E,B,E]2 [A,,A,]2 | [B,,G,]2 [B,,F,]2 [B,,A,]2 |[M:2/4] [E,G,]4 |] %34

